X:76
T:A Trip to the Laundry
O:england
M:4/4
L:1/8
Q:300
C:Variations by Stephen McNally
S:William Vickers
R:Reel
K:Hp
|:A2c2B2d2|c2e2B2d2|dcBA G2B2|d2B6|A2c2B2d2|c2e2B2d2|dcBA G2B2|c2 A6:|
|:e2a2 a2e2|fedc dcBA|e2a2 g2f2|gab2 e4|e2a2 a2e2|fedc dcBA|dcBA G2B2|c2
A6:|
|:ABc2 Bcd2|cde2 Bcd2|dcBA G2B2|d2B6|ABc2 Bcd2|cde2 Bcd2|dcBA G2B2|c2 A6
:|
|:e2a2 agfe|fedc dcBA|e2a2 gfef|gab2 e4|e2a2 agfe|fedc dcBA|dcBA G2B2|c2
A6:|
|:Acec Adfd|Aege Adfd-|dcBA GBBc|d2B6|Acec Adfd|Aege Adfd-|dcBA GBBd|c2
A6:|
|:efga- agfe|fedc dcBA|efga gfef|gab2 e4|efga- agfe|fedc dcBA|dcBA GBBd|
c2 A6:|
|:edcd fdcd|gdcd fdcd-|dcBA GBBc|d2B6|edcd fdcd|gdcd fdcd-|dcBA GBBd|c2
A6:|
|:edca- agfe|fecd- dcBA|efga- afef|gab2 e4|edca- agfe|fecd- dcBA|dcBA GB
Bd|c2 A6:|
|:c2A2A2d2|A2A2e2A2|dcBA GBBc|d2B6|c2A2A2d2|A2A2e2A2|dcBA GBBd|c2 A6:|
|:edca fdca|edca dcBa|edca fdca|gab2 e4|edca fdca|edca dcBa|dcBA GBBd|c2
A6:|
|:AceA dfAe|gAdf AceA|dcBA GBBc|d2B6|AceA dfAe|gAdf AceA|dcBA GBBd|c2 A6
:|
|:acca eeAc|adda ffAd|acca eeAc|gab2 e4|acca eeAc|adda ffAd|dcBA GBBd|c2
A6:|


